X:1
L:1/8
Q:1/8=180
M:4/4
K:G
 ef |: g2 gf g2 dg | g2 fg edBd | edfd edfd | edfd edBd | g3 f g2 dg | g2 fg edBA | Bdef g3 e |1 
 dBAB GABd :|2 dBAB G3 || A | Bd^cd Bdcd | Bd^cd edBd | edfd edfd | edfd edBA | Bd^cd Bdcd | 
 Bd^cd edBA | Bdef g3 e |1 dBAB G3 :|2 dBAB G4 |]
